icon/gr/status-critical.svg

<svg xmlns="http://www.w3.org/2000/svg" viewBox="0 0 24 24" height="1em" width="1em">
  <path fill="none" stroke="#000" stroke-width="2" d="M12.7031806,2.70318058 C12.3148247,2.31482467 11.6897542,2.31024575 11.2968194,2.70318058 L2.70318058,11.2968194 C2.31482467,11.6851753 2.31024575,12.3102458 2.70318058,12.7031806 L11.2968194,21.2968194 C11.6851753,21.6851753 12.3102458,21.6897542 12.7031806,21.2968194 L21.2968194,12.7031806 C21.6851753,12.3148247 21.6897542,11.6897542 21.2968194,11.2968194 L12.7031806,2.70318058 Z M8.98264552,14.7001725 L14.7001725,8.98264552 M8.98264552,8.98264552 L14.7001725,14.7001725"/>
</svg>

<svg xmlns="http://www.w3.org/2000/svg" width="24" height="24"><path fill="none" stroke="#000" stroke-width="2" d="M12.703 2.703a.99.99 0 0 0-1.406 0l-8.594 8.594a.99.99 0 0 0 0 1.406l8.594 8.594a.99.99 0 0 0 1.406 0l8.594-8.594a.99.99 0 0 0 0-1.406l-8.594-8.594ZM8.983 14.7 14.7 8.983m-5.717 0L14.7 14.7"/></svg>
